X: 40340
T: Tom Byrne's
R: jig
M: 6/8
K: Dmajor
|:DFA B2A|dAF FEF|DFA B2A|dAF E2 z|
d2A BAF|AFD EDB,|DFA BAF|dAF D3:|
f2 z edB|BAd BAF|faf dfa|baf e2 z|
[1 faf edB|BAd BAF|DFA BAF|dAF D3:|
[2 baf afd|faf edB|DFA BAF|dAF D3||

